; generated by PrusaSlicer 2.4.0+arm64 on 2022-02-18 at 14:53:20 UTC


;
;

;
;
; 

; external perimeters extrusion width = 0.45mm
; perimeters extrusion width = 0.45mm
; infill extrusion width = 0.45mm
; solid infill extrusion width = 0.45mm
; top infill extrusion width = 0.40mm
; support material extrusion width = 0.35mm
; first layer extrusion width = 0.42mm

M73 P0 R53
M201 X2500 Y2500 Z400 E5000 ; sets maximum accelerations, mm/sec^2
M203 X180 Y180 Z12 E80 ; sets maximum feedrates, mm/sec
M204 P1250 R1250 T2500 ; sets acceleration (P, T) and retract acceleration (R), mm/sec^2
M205 X8.00 Y8.00 Z2.00 E10.00 ; sets the jerk limits, mm/sec
M205 S0 T0 ; sets the minimum extruding and travel feed rate, mm/sec
M107
;TYPE:Custom
G90 ; use absolute coordinates
M83 ; extruder relative mode
M104 S170 ; set extruder temp for bed leveling
M140 S60 ; set bed temp
M109 R170 ; wait for bed leveling temp
M190 S60 ; wait for bed temp
M204 T1250 ; set travel acceleration
G28 ; home all without mesh bed level
G29 ; mesh bed leveling 
M204 T2500 ; restore travel acceleration
M104 S215 ; set extruder temp
G92 E0
G1 Y-2 X179 F2400
G1 Z3 F720
M109 S215 ; wait for extruder temp

; intro line
G1 X170 F1000
G1 Z0.2 F720
G1 X110 E8 F900
G1 X40 E10 F700
G92 E0

M221 S95 ; set flow
G21 ; set units to millimeters
G90 ; use absolute coordinates
M83 ; use relative distances for extrusion
M900 K0.2 ; Filament gcode LA 1.5
; ; Filament gcode LA 1.0
M107
;LAYER_CHANGE
;Z:0.2
;HEIGHT:0.2
;BEFORE_LAYER_CHANGE
G92 E0.0
;0.2


G1 E-3.2 F4200
M73 P0 R52
G1 Z.2 F720
;AFTER_LAYER_CHANGE
;0.2
G1 Z.4
G1 X74.077 Y74.077 F9000
G1 Z.2 F720
G1 E3.2 F2400
M204 P800
;TYPE:Skirt/Brim
;WIDTH:0.42
G1 F1200
G1 X80.808 Y67.345 E.29849
G1 X81.426 Y66.9 E.02388
G1 X86.019 Y64.603 E.161
G1 X87.082 Y64.352 E.03425
G1 X97.551 Y64.352 E.32824
G1 X98.614 Y64.603 E.03425
G1 X107.799 Y69.196 E.322
G1 X108.714 Y70.004 E.03826
G1 X113.307 Y76.893 E.2596
G1 X113.706 Y78.211 E.0432
G1 X113.706 Y104.755 E.83225
G1 X113.01 Y106.435 E.05704
G1 X110.713 Y108.732 E.10182
G1 X109.609 Y109.357 E.03979
G1 X100.424 Y111.653 E.29687
G1 X99.847 Y111.724 E.01821
G1 X91.674 Y111.724 E.25624
G1 X90.792 Y111.554 E.02819
G1 X79.31 Y106.962 E.38773
G1 X78.512 Y106.435 E.02997
G1 X76.216 Y104.139 E.10182
G1 X75.77 Y103.521 E.02388
G1 X73.474 Y98.929 E.161
G1 X73.223 Y97.866 E.03425
G1 X73.223 Y75.915 E.68825
G1 X73.919 Y74.234 E.05704
G1 X74.034 Y74.119 E.0051
M204 P1000
; printing object 3_operator.stl id:0 copy 0
G1 E-2.24 F4200
;WIPE_START
G1 F7200
G1 X75.198 Y72.955 E-.912
;WIPE_END
G1 E-.048 F4200
G1 Z.4 F720
G1 X86.523 Y83.446 F9000
G1 Z.2 F720
G1 E3.2 F2400
M204 P800
;TYPE:Support material interface
;WIDTH:0.35
G1 F1200
G1 X86.175 Y83.446 E.00889
G1 X86.175 Y92.631 E.23454
G1 X85.678 Y92.631 E.01267
G1 X85.678 Y83.446 E.23454
G1 X85.427 Y83.446 E.00641
G1 X85.427 Y92.631 E.23454
G1 X85.53 Y92.631 E.00263
M204 P1000
G1 E-2.24 F4200
;WIPE_START
G1 F7200
G1 X85.427 Y92.631 E-.05705
G1 X85.427 Y91.088 E-.85495
;WIPE_END
G1 E-.048 F4200
G1 Z.4 F720
G1 X88.014 Y93.321 F9000
G1 Z.2 F720
G1 E3.2 F2400
M204 P800
G1 F1200
G1 X88.109 Y93.836 E.01336
G1 X88.16 Y93.987 E.00408
G1 X88.16 Y97.224 E.08265
G1 X87.724 Y97.224 E.01115
G1 X87.724 Y92.631 E.11727
G1 X87.664 Y92.631 E.00153
G1 X87.664 Y91.038 E.04068
G1 X87.604 Y90.758 E.0073
G1 X87.404 Y90.274 E.01338
M204 P1000
G1 X87.013 Y89.347 F9000
M204 P800
G1 F1200
G1 X87.167 Y89.681 E.00939
G1 X87.167 Y92.631 E.07533
G1 X86.671 Y92.631 E.01267
G1 X86.671 Y88.453 E.10669
G1 X86.444 Y87.596 E.02263
G1 X86.412 Y87.105 E.01258
M204 P1000
G1 X86.412 Y86.44 F9000
M204 P800
G1 F1200
G1 X86.612 Y85.649 E.02084
G1 X86.671 Y85.54 E.00317
G1 X86.671 Y83.446 E.05348
G1 X87.167 Y83.446 E.01267
G1 X87.167 Y84.897 E.03705
G1 X87.664 Y84.605 E.0147
G1 X87.664 Y83.446 E.0296
G1 X88.16 Y83.446 E.01267
G1 X88.16 Y84.546 E.0281
G1 X88.433 Y84.533 E.00697
G1 X88.656 Y84.587 E.00588
G1 X88.656 Y83.446 E.02914
G1 X89.153 Y83.446 E.01267
G1 X89.153 Y84.765 E.03367
G1 X89.392 Y84.878 E.00675
G1 X89.649 Y85.053 E.00795
G1 X89.649 Y83.446 E.04103
G1 X90.145 Y83.446 E.01267
G1 X90.145 Y85.476 E.05185
G1 X90.42 Y85.78 E.01046
G1 X90.642 Y86.098 E.00989
G1 X90.642 Y83.446 E.06772
G1 X90.99 Y83.446 E.00889
M204 P1000
G1 E-2.24 F4200
;WIPE_START
G1 F7200
G1 X90.642 Y83.446 E-.19295
G1 X90.642 Y84.743 E-.71905
;WIPE_END
G1 E-.048 F4200
G1 Z.4 F720
G1 X94.375 Y83.446 F9000
G1 Z.2 F720
G1 E3.2 F2400
M204 P800
G1 F1200
G1 X94.116 Y83.446 E.00662
G1 X94.116 Y94.928 E.29317
G1 X93.62 Y94.928 E.01267
G1 X93.62 Y83.446 E.29317
G1 X93.124 Y83.446 E.01267
G1 X93.124 Y94.928 E.29317
G1 X92.627 Y94.928 E.01267
G1 X92.627 Y83.446 E.29317
G1 X92.131 Y83.446 E.01267
G1 X92.131 Y92.526 E.23185
G1 X92.229 Y92.822 E.00797
G1 X92.26 Y93.477 E.01674
G1 X92.23 Y93.777 E.00769
G1 X92.131 Y94.056 E.00756
G1 X92.131 Y97.224 E.08089
G1 X91.634 Y97.224 E.01267
M73 P1 R52
G1 X91.634 Y94.912 E.05903
G1 X91.435 Y95.158 E.00808
G1 X91.138 Y95.407 E.0099
G1 X91.138 Y97.224 E.0464
G1 X90.642 Y97.224 E.01267
G1 X90.642 Y95.671 E.03965
G1 X90.352 Y95.765 E.00777
G1 X90.145 Y95.783 E.0053
G1 X90.145 Y97.224 E.03679
G1 X89.649 Y97.224 E.01267
G1 X89.649 Y95.749 E.03765
G1 X89.435 Y95.676 E.00578
G1 X89.153 Y95.529 E.00812
G1 X89.153 Y97.224 E.04329
G1 X88.656 Y97.224 E.01267
G1 X88.656 Y95.047 E.0556
G1 X88.397 Y94.592 E.01336
M204 P1000
G1 E-2.24 F4200
;WIPE_START
G1 F7200
G1 X88.656 Y95.047 E-.29003
G1 X88.656 Y96.169 E-.62197
;WIPE_END
G1 E-.048 F4200
G1 Z.4 F720
G1 X91.678 Y92.331 F9000
G1 Z.2 F720
G1 E3.2 F2400
M204 P800
;TYPE:Support material
;WIDTH:0.42
G1 F1200
G1 X91.873 Y92.867 E.01786
G1 X91.902 Y93.48 E.01926
G1 X91.876 Y93.715 E.0074
G1 X91.743 Y94.069 E.01188
G1 X91.495 Y94.509 E.01582
G1 X91.195 Y94.89 E.01521
G1 X90.817 Y95.207 E.01548
G1 X90.42 Y95.376 E.01352
G1 X90.271 Y95.415 E.00481
G1 X90.006 Y95.434 E.00834
G1 X89.771 Y95.412 E.00741
G1 X89.588 Y95.351 E.00606
G1 X89.274 Y95.187 E.01109
G1 X88.923 Y94.807 E.01623
G1 X88.784 Y94.565 E.00873
G1 X88.642 Y94.279 E.01002
G1 X88.457 Y93.752 E.0175
G1 X88.26 Y92.535 E.03868
G1 X88.208 Y91.886 E.0204
G1 X88.085 Y91.201 E.02182
G1 X88.034 Y91.056 E.0048
G1 X87.947 Y90.65 E.01302
G1 X87.459 Y89.435 E.04108
G1 X87.137 Y88.73 E.0243
G1 X86.881 Y87.884 E.02771
G1 X86.794 Y87.518 E.01177
G1 X86.758 Y86.89 E.01973
G1 X86.758 Y86.536 E.01112
G1 X86.95 Y85.771 E.02473
G1 X87.31 Y85.233 E.02029
G1 X87.808 Y84.935 E.0182
G1 X88.433 Y84.893 E.01964
G1 X89.088 Y85.125 E.0218
G1 X89.356 Y85.283 E.00975
G1 X89.693 Y85.543 E.01334
G1 X89.934 Y85.771 E.0104
G1 X90.201 Y86.087 E.01299
G1 X89.362 Y86.087 E.02632
G1 X89.29 Y86.019 E.00312
G1 X88.967 Y85.8 E.01222
G1 X88.607 Y85.642 E.01233
G1 X88.402 Y85.587 E.00665
G1 X88.275 Y85.588 E.004
G1 X87.887 Y85.694 E.0126
G1 X87.562 Y85.825 E.011
G1 X87.441 Y85.931 E.00501
G1 X87.079 Y86.551 E.02254
G1 X87.047 Y86.651 E.00329
G1 X87.017 Y87.398 E.02344
G1 X87.039 Y87.697 E.0094
G1 X87.111 Y87.962 E.0086
G1 X87.269 Y88.405 E.01475
G1 X87.464 Y88.838 E.01488
G1 X87.704 Y89.261 E.01526
G1 X88.069 Y89.702 E.01795
G1 X88.069 Y89.989 E.009
G1 X88.376 Y89.989 E.00962
G1 X88.581 Y90.091 E.00719
G1 X89.046 Y90.161 E.01474
G1 X89.264 Y90.088 E.00721
G1 X89.361 Y89.989 E.00435
G1 X90.365 Y89.989 E.03148
G1 X90.365 Y91.712 E.054
G1 X90.165 Y91.504 E.00905
G1 X89.59 Y91.196 E.02045
G1 X89.278 Y91.243 E.0099
G1 X88.859 Y91.661 E.01856
G1 X88.796 Y91.771 E.00397
G1 X88.633 Y92.382 E.01982
G1 X88.596 Y92.633 E.00797
G1 X88.678 Y93.689 E.03321
G1 X88.766 Y93.959 E.00891
G1 X89.083 Y94.517 E.02013
G1 X89.248 Y94.662 E.00687
G1 X89.674 Y94.922 E.01565
G1 X89.823 Y94.977 E.00497
G1 X89.929 Y94.985 E.00335
G1 X90.098 Y94.952 E.0054
G1 X90.528 Y94.757 E.01479
G1 X90.712 Y94.635 E.00692
G1 X90.777 Y94.569 E.00291
G1 X91.07 Y94.127 E.01663
G1 X91.148 Y93.93 E.00665
G1 X91.161 Y93.836 E.00296
G1 X91.117 Y92.987 E.02668
G1 X91.096 Y92.899 E.00282
G1 X90.8 Y92.286 E.02135
G1 X91.652 Y92.286 E.02671
M204 P1000
G1 E-2.24 F4200
;WIPE_START
G1 F7200
G1 X90.8 Y92.286 E-.47208
G1 X91.096 Y92.899 E-.37738
G1 X91.117 Y92.987 E-.04985
G1 X91.118 Y93.009 E-.01268
;WIPE_END
G1 E-.048 F4200
G1 Z.4 F720
G1 X90.004 Y91.222 F9000
G1 Z.2 F720
G1 E3.2 F2400
M204 P800
G1 F1200
G1 X90.004 Y90.329 E.02802
G1 X89.585 Y90.329 E.01314
G1 X89.585 Y90.854 E.01645
G1 X89.166 Y90.917 E.01329
G1 X89.166 Y90.478 E.01374
G1 X89.076 Y90.508 E.00297
G1 X88.747 Y90.459 E.01043
G1 X88.747 Y91.294 E.02618
G1 X88.588 Y91.453 E.00705
G1 X88.498 Y91.608 E.00562
G1 X88.417 Y91.122 E.01544
G1 X88.328 Y90.808 E.01024
G1 X88.328 Y90.159 E.02036
M204 P1000
G1 E-2.24 F4200
;WIPE_START
G1 F7200
G1 X88.328 Y90.808 E-.35977
G1 X88.417 Y91.122 E-.18095
G1 X88.498 Y91.608 E-.27298
G1 X88.587 Y91.455 E-.0983
;WIPE_END
G1 E-.048 F4200
G1 Z.4 F720
G1 X88.328 Y85.418 F9000
G1 Z.2 F720
G1 E3.2 F2400
M204 P800
G1 F1200
G1 X88.328 Y85.237 E.00569
G1 X87.922 Y85.262 E.01276
G1 X87.909 Y85.512 E.00787
M204 P1000
G1 E-2.24 F4200
;WIPE_START
G1 F7200
G1 X87.922 Y85.262 E-.1391
G1 X88.328 Y85.237 E-.22554
G1 X88.328 Y85.418 E-.10059
;WIPE_END
G1 E-.49477 F4200
G1 Z.4 F720
G1 X91.138 Y90.272 F9000
G1 Z.2 F720
G1 E3.2 F2400
M204 P800
;TYPE:Support material interface
;WIDTH:0.35
G1 F1200
G1 X91.138 Y83.446 E.17431
G1 X91.634 Y83.446 E.01267
G1 X91.634 Y91.449 E.20436
G1 X91.471 Y91.117 E.00947
M204 P1000
G1 E-2.24 F4200
;WIPE_START
G1 F7200
G1 X91.634 Y91.449 E-.20545
G1 X91.634 Y90.174 E-.70655
;WIPE_END
G1 E-.048 F4200
G1 Z.4 F720
G1 X94.79 Y90.745 F9000
G1 Z.2 F720
G1 E3.2 F2400
M204 P800
G1 F1200
G1 X94.949 Y90.019 E.01899
G1 X94.96 Y89.389 E.01609
G1 X94.872 Y88.923 E.01209
G1 X94.761 Y88.534 E.01034
M204 P1000
G1 E-2.24 F4200
;WIPE_START
G1 F7200
G1 X94.872 Y88.923 E-.22436
G1 X94.96 Y89.389 E-.26243
G1 X94.949 Y90.019 E-.34921
G1 X94.92 Y90.153 E-.076
;WIPE_END
G1 E-.048 F4200
G1 Z.4 F720
G1 X94.353 Y86.965 F9000
G1 Z.2 F720
G1 E3.2 F2400
M204 P800
G1 F1200
G1 X94.423 Y87.411 E.01153
G1 X94.613 Y88.074 E.01759
G1 X94.613 Y91.35 E.08367
G1 X94.418 Y92.352 E.02604
G1 X94.558 Y93.166 E.0211
G1 X94.613 Y93.336 E.00455
G1 X94.613 Y94.928 E.04064
G1 X95.109 Y94.928 E.01267
G1 X95.109 Y94.006 E.02352
G1 X95.363 Y94.237 E.00877
G1 X95.605 Y94.418 E.00772
G1 X95.605 Y94.928 E.01302
G1 X96.102 Y94.928 E.01267
G1 X96.102 Y94.675 E.00645
G1 X96.278 Y94.737 E.00477
G1 X96.598 Y94.812 E.0084
G1 X96.598 Y94.928 E.00294
G1 X97.094 Y94.928 E.01267
G1 X97.094 Y94.847 E.00207
G1 X97.363 Y94.827 E.00687
G1 X97.591 Y94.76 E.00606
G1 X97.591 Y94.928 E.00428
G1 X98.087 Y94.928 E.01267
G1 X98.087 Y94.554 E.00954
G1 X98.356 Y94.401 E.0079
G1 X98.583 Y94.16 E.00847
G1 X98.583 Y94.928 E.0196
G1 X99.08 Y94.928 E.01267
G1 X99.08 Y93.298 E.0416
G1 X99.176 Y93.012 E.00771
G1 X99.21 Y92.214 E.0204
G1 X99.08 Y91.349 E.02235
G1 X99.08 Y88.244 E.07926
G1 X99.275 Y87.405 E.022
G1 X99.339 Y86.889 E.01329
M204 P1000
G1 E-2.24 F4200
;WIPE_START
G1 F7200
G1 X99.275 Y87.405 E-.28844
G1 X99.08 Y88.244 E-.47739
G1 X99.08 Y88.508 E-.14617
;WIPE_END
G1 E-.048 F4200
G1 Z.4 F720
G1 X98.915 Y84.952 F9000
G1 Z.2 F720
G1 E3.2 F2400
M204 P800
G1 F1200
G1 X99.08 Y85.285 E.0095
G1 X99.08 Y81.149 E.1056
G1 X98.583 Y81.149 E.01267
G1 X98.583 Y84.498 E.08551
G1 X98.372 Y84.284 E.00767
G1 X98.087 Y84.07 E.00912
G1 X98.087 Y81.149 E.07457
G1 X97.591 Y81.149 E.01267
G1 X97.591 Y83.824 E.0683
G1 X97.318 Y83.746 E.00724
G1 X97.094 Y83.726 E.00574
G1 X97.094 Y81.149 E.0658
G1 X96.598 Y81.149 E.01267
G1 X96.598 Y83.752 E.06646
G1 X96.48 Y83.771 E.00304
G1 X96.102 Y83.914 E.01033
G1 X96.102 Y81.149 E.07059
G1 X95.605 Y81.149 E.01267
G1 X95.605 Y84.208 E.0781
G1 X95.476 Y84.301 E.00407
G1 X95.109 Y84.664 E.01318
G1 X95.109 Y81.149 E.08974
G1 X94.613 Y81.149 E.01267
G1 X94.613 Y85.436 E.10946
G1 X94.454 Y85.849 E.0113
G1 X94.384 Y86.112 E.00695
G1 X94.353 Y86.366 E.00654
M204 P1000
G1 E-2.24 F4200
;WIPE_START
G1 F7200
G1 X94.384 Y86.112 E-.14185
G1 X94.454 Y85.849 E-.15073
G1 X94.613 Y85.436 E-.24521
G1 X94.613 Y84.761 E-.3742
;WIPE_END
G1 E-.048 F4200
G1 Z.4 F720
G1 X97.049 Y84.083 F9000
G1 Z.2 F720
G1 E3.2 F2400
M204 P800
;TYPE:Support material
;WIDTH:0.42
G1 F1200
G1 X97.257 Y84.099 E.00654
G1 X97.511 Y84.176 E.00834
G1 X97.75 Y84.286 E.00823
G1 X97.98 Y84.431 E.00854
G1 X98.215 Y84.623 E.00951
G1 X98.3 Y84.718 E.00401
G1 X98.647 Y85.199 E.01859
G1 X98.855 Y85.686 E.01662
G1 X98.954 Y86.092 E.01307
G1 X98.992 Y86.509 E.01313
G1 X98.979 Y86.925 E.01305
G1 X98.924 Y87.336 E.013
G1 X98.86 Y87.636 E.00962
G1 X98.86 Y86.087 E.04854
G1 X98.468 Y86.087 E.01228
G1 X98.345 Y85.692 E.01299
G1 X98.083 Y85.299 E.01481
G1 X97.801 Y85.024 E.01236
G1 X97.645 Y84.921 E.00585
G1 X97.479 Y84.842 E.00575
G1 X97.273 Y84.782 E.00675
G1 X96.946 Y84.758 E.01029
G1 X96.741 Y84.78 E.00645
G1 X96.37 Y84.877 E.01203
G1 X96.061 Y85.093 E.01182
G1 X95.801 Y85.324 E.01091
G1 X95.532 Y85.759 E.01603
G1 X95.432 Y86.087 E.01077
G1 X94.761 Y86.087 E.02104
G1 X94.883 Y85.697 E.01283
G1 X95.105 Y85.27 E.01509
G1 X95.383 Y84.895 E.01465
G1 X95.715 Y84.567 E.01462
G1 X96.106 Y84.301 E.01482
G1 X96.397 Y84.182 E.00986
G1 X96.583 Y84.116 E.00618
G1 X96.992 Y84.083 E.01288
M204 P1000
G1 E-2.24 F4200
;WIPE_START
G1 F7200
G1 X96.583 Y84.116 E-.22763
G1 X96.397 Y84.182 E-.10928
G1 X96.106 Y84.301 E-.17435
G1 X95.715 Y84.567 E-.26191
G1 X95.537 Y84.743 E-.13883
;WIPE_END
G1 E-.048 F4200
G1 Z.4 F720
G1 X99.317 Y83.446 F9000
G1 Z.2 F720
G1 E3.2 F2400
M204 P800
;TYPE:Support material interface
;WIDTH:0.35
G1 F1200
G1 X99.576 Y83.446 E.00662
G1 X99.576 Y94.928 E.29317
G1 X100.072 Y94.928 E.01267
G1 X100.072 Y83.446 E.29317
G1 X100.569 Y83.446 E.01267
G1 X100.569 Y94.928 E.29317
G1 X101.065 Y94.928 E.01267
G1 X101.065 Y83.446 E.29317
G1 X101.502 Y83.446 E.01115
G1 X101.502 Y94.928 E.29317
G1 X101.213 Y94.928 E.00736
M204 P1000
G1 E-2.24 F4200
;WIPE_START
G1 F7200
G1 X101.502 Y94.928 E-.1598
G1 X101.502 Y93.57 E-.7522
;WIPE_END
G1 E-.048 F4200
G1 Z.4 F720
G1 X98.932 Y90.607 F9000
G1 Z.2 F720
G1 E3.2 F2400
M204 P800
G1 F1200
G1 X98.896 Y90.443 E.00428
G1 X98.831 Y89.77 E.01726
G1 X98.871 Y89.183 E.01504
M204 P1000
G1 E-2.24 F4200
;WIPE_START
G1 F7200
G1 X98.831 Y89.77 E-.32631
G1 X98.896 Y90.443 E-.37457
G1 X98.932 Y90.607 E-.09299
;WIPE_END
G1 E-.16613 F4200
G1 Z.4 F720
G1 X95.466 Y92.563 F9000
G1 Z.2 F720
G1 E3.2 F2400
M204 P800
;TYPE:Support material
;WIDTH:0.42
G1 F1200
G1 X95.557 Y93.155 E.0188
G1 X95.597 Y93.256 E.0034
G1 X95.752 Y93.472 E.00834
G1 X96.007 Y93.732 E.01142
G1 X96.412 Y93.989 E.01503
G1 X96.827 Y94.104 E.01348
G1 X97.197 Y94.098 E.01163
G1 X97.705 Y93.94 E.01669
G1 X97.904 Y93.819 E.00729
G1 X97.988 Y93.736 E.0037
G1 X98.272 Y93.268 E.01717
G1 X98.402 Y92.999 E.00936
G1 X98.426 Y92.892 E.00344
G1 X98.425 Y92.286 E.019
G1 X98.848 Y92.286 E.01328
G1 X98.819 Y92.97 E.02149
G1 X98.585 Y93.607 E.02126
G1 X98.149 Y94.107 E.0208
G1 X98.043 Y94.177 E.00398
G1 X97.662 Y94.363 E.01331
G1 X97.308 Y94.472 E.0116
G1 X97.212 Y94.484 E.00305
G1 X96.967 Y94.492 E.00769
G1 X96.658 Y94.459 E.00973
G1 X96.368 Y94.39 E.00934
G1 X96.059 Y94.274 E.01036
G1 X95.833 Y94.14 E.00825
G1 X95.586 Y93.956 E.00966
G1 X95.346 Y93.737 E.01019
G1 X95.123 Y93.486 E.01051
G1 X94.973 Y93.28 E.008
G1 X94.91 Y93.094 E.00615
G1 X94.782 Y92.404 E.022
G1 X94.792 Y92.286 E.00372
G1 X95.448 Y92.286 E.02059
G1 X95.463 Y92.506 E.00692
M204 P1000
G1 E-2.24 F4200
;WIPE_START
G1 F7200
G1 X95.448 Y92.286 E-.12237
G1 X94.792 Y92.286 E-.3639
G1 X94.782 Y92.404 E-.06578
G1 X94.9 Y93.043 E-.35995
;WIPE_END
G1 E-.048 F4200
G1 Z.4 F720
G1 X97.551 Y69.026 F9000
G1 Z.2 F720
G1 E3.2 F2400
M204 P800
G1 F1200
G1 X102.143 Y69.026 E.144
G1 X102.143 Y71.322 E.072
G1 X106.736 Y71.322 E.144
G1 X106.736 Y75.915 E.144
G1 X109.032 Y75.915 E.072
G1 X109.032 Y78.211 E.072
G1 X111.329 Y78.211 E.072
G1 X111.329 Y95.569 E.54425
G1 X109.032 Y95.569 E.072
G1 X109.032 Y96.582 E.03176
G1 X111.329 Y96.582 E.072
G1 X111.329 Y104.755 E.25624
G1 X109.032 Y104.755 E.072
G1 X109.032 Y107.051 E.072
G1 X99.847 Y107.051 E.288
G1 X99.847 Y109.347 E.072
G1 X91.674 Y109.347 E.25624
G1 X91.674 Y107.051 E.072
G1 X87.082 Y107.051 E.144
G1 X87.082 Y104.755 E.072
